src/static/logos/percy.svg

<?xml version="1.0" encoding="UTF-8" standalone="no"?>
<svg width="256px" height="162px" viewBox="0 0 256 162" version="1.1" xmlns="http://www.w3.org/2000/svg" xmlns:xlink="http://www.w3.org/1999/xlink" preserveAspectRatio="xMidYMid">
	<g>
		<path d="M72.1170732,147.668293 L9.9902439,156.721951 L67.1219512,130.809756 L4.99512195,122.068293 L67.1219512,113.326829 L9.9902439,87.4146341 L72.1170732,96.6243902 L24.5073171,55.5707317 L81.4829268,81.795122 L47.4536585,29.1902439 L94.7512195,70.4 L76.8,10.302439 L110.673171,63.0634146 L110.360976,0.312195122 L128,60.5658537 L145.482927,0.312195122 L145.326829,63.0634146 L179.043902,10.1463415 L161.24878,70.4 L208.390244,29.0341463 L174.360976,81.795122 L231.336585,55.5707317 L183.882927,96.4682927 L246.009756,87.4146341 L188.878049,113.326829 L251.004878,121.912195 L188.878049,130.809756 L246.009756,156.565854 L183.882927,147.512195" fill="#1F0924"></path>
		<path d="M86.0749518,65.2491187 L71.3365854,33.0926829 L106.302439,73.6780488 L98.497561,20.7609756 L120.507317,69.4634146 L128,16.3902439 L135.492683,69.4634146 L157.502439,20.7609756 L149.697561,73.6780488 L184.663415,33.0926829 L169.925048,65.2491187 L169.925048,65.2491187 L205.112195,56.3512195 L197.896205,85.3261953 L223.37561,77.7365854 L195.312472,95.7008778 L194.965854,97.0926829 L194.250321,96.3808012 L178.263415,106.614634 L231.804878,106.458537 L180.44878,121.287805 L231.804878,136.273171 L178.263415,136.117073 L77.7365854,136.117073 L24.195122,136.273171 L75.5512195,121.287805 L24.195122,106.458537 L77.7365854,106.614634 L61.7496788,96.3808012 L61.0341463,97.0926829 L60.6875282,95.7008778 L32.6243902,77.7365854 L58.103795,85.3261953 L50.8878049,56.3512195 L86.0749518,65.2491187 Z M88.2566129,70.0091065 L93.6585366,81.795122 L83.9804878,93.0341463 L69.4607145,88.7091075 L88.2566129,70.0091065 Z M167.743387,70.0091065 L162.341463,81.795122 L172.019512,93.0341463 L186.539286,88.7091075 L167.743387,70.0091065 L167.743387,70.0091065 Z" fill="#EDDDC2"></path>
		<path d="M173.580488,71.1804878 L195.902439,65.5609756 L190.282927,87.8829268 L173.580488,87.8829268 L173.580488,71.1804878 Z" fill="#1F0924"></path>
		<path d="M82.4195122,71.1804878 L60.097561,65.5609756 L65.7170732,87.8829268 L82.4195122,87.8829268 L82.4195122,71.1804878 Z" fill="#1F0924"></path>
		<path d="M55.102439,153.131707 L200.897561,153.131707 L255.687805,133.463415 L200.585366,113.95122 L238.517073,69.6195122 L181.073171,80.3902439 L191.843902,22.9463415 L147.512195,60.8780488 L128,5.77560976 L108.487805,60.8780488 L64.1560976,22.9463415 L74.9268293,80.3902439 L17.4829268,69.6195122 L55.4146341,113.95122 L0.312195122,133.463415" fill="#B157B5"></path>
		<g transform="translate(71.804878, 98.341463)">
			<circle fill="#FFFAF3" cx="19.3560976" cy="19.8243902" r="18.8878049"></circle>
			<circle fill="#1F0924" cx="19.3560976" cy="19.8243902" r="14.8292683"></circle>
			<circle fill="#FFFAF3" cx="14.3609756" cy="14.8292683" r="6.55609756"></circle>
		</g>
		<g transform="translate(145.170732, 98.341463)">
			<circle fill="#FFFAF3" cx="19.6682927" cy="19.8243902" r="18.8878049"></circle>
			<circle fill="#1F0924" cx="19.6682927" cy="19.8243902" r="14.8292683"></circle>
			<circle fill="#FFFAF3" cx="14.5170732" cy="14.8292683" r="6.55609756"></circle>
		</g>
		<path d="M93.502439,147.668293 C93.502439,128.62439 108.956098,113.170732 128,113.170732 C147.043902,113.170732 162.497561,128.62439 162.497561,147.668293 C162.497561,166.712195 93.502439,166.712195 93.502439,147.668293 Z M68.6829268,153.443902 C68.6829268,147.2 73.6780488,142.04878 80.0780488,142.04878 C86.4780488,142.04878 91.4731707,147.043902 91.4731707,153.443902 C91.4731707,159.843902 68.6829268,159.687805 68.6829268,153.443902 Z M164.526829,153.443902 C164.526829,147.2 169.521951,142.04878 175.921951,142.04878 C182.165854,142.04878 187.317073,147.043902 187.317073,153.443902 C187.317073,159.843902 164.526829,159.687805 164.526829,153.443902 Z" fill="#EDDDC2"></path>
		<path d="M126.358199,137.87992 C125.890651,140.689813 123.450684,142.829268 120.507317,142.829268 C117.229268,142.829268 114.57561,140.17561 114.57561,136.897561 C114.57561,135.960976 113.95122,135.336585 113.014634,135.336585 C112.078049,135.336585 111.453659,135.960976 111.453659,136.897561 C111.453659,141.892683 115.512195,145.95122 120.507317,145.95122 C123.629268,145.95122 126.439024,144.390244 128,142.04878 C129.717073,144.390244 132.370732,145.95122 135.492683,145.95122 C140.487805,145.95122 144.390244,141.892683 144.546341,136.897561 C144.546341,135.960976 143.921951,135.336585 142.985366,135.336585 C142.04878,135.336585 141.42439,135.960976 141.42439,136.897561 C141.42439,140.17561 138.770732,142.829268 135.492683,142.829268 C132.549316,142.829268 130.109349,140.689813 129.641801,137.87992 C135.580805,137.075469 140.17561,131.970172 140.17561,125.814634 C140.17561,119.102439 115.82439,119.102439 115.82439,125.814634 C115.82439,131.970172 120.419195,137.075469 126.358199,137.87992 Z" fill="#1F0924"></path>
	</g>
</svg>

<svg width="256" height="162" xmlns="http://www.w3.org/2000/svg" preserveAspectRatio="xMidYMid"><path d="M72.117 147.668L9.99 156.722l57.132-25.912-62.127-8.742 62.127-8.741L9.99 87.415l62.127 9.21-47.61-41.054 56.976 26.224-34.03-52.605L94.752 70.4 76.8 10.302l33.873 52.761-.312-62.75L128 60.565 145.483.312l-.156 62.751 33.717-52.917L161.249 70.4l47.141-41.366-34.029 52.761 56.976-26.224-47.454 40.897 62.127-9.053-57.132 25.912 62.127 8.585-62.127 8.898 57.132 25.756-62.127-9.054" fill="#1F0924"/><path d="M86.075 65.25L71.337 33.092l34.965 40.585-7.804-52.917 22.01 48.702L128 16.39l7.493 53.073 22.01-48.702-7.805 52.917 34.965-40.585-14.738 32.156 35.187-8.898-7.216 28.975 25.48-7.59-28.064 17.965-.346 1.392-.716-.712-15.987 10.234 53.542-.156-51.356 14.829 51.356 14.985-53.542-.156H77.737l-53.542.156 51.356-14.985-51.356-14.83 53.542.157L61.75 96.38l-.716.712-.346-1.392-28.064-17.964 25.48 7.59-7.216-28.976 35.187 8.898zm2.182 4.76l5.402 11.785-9.679 11.24-14.52-4.326 18.797-18.7zm79.486 0l-5.402 11.785 9.679 11.24 14.52-4.326-18.797-18.7z" fill="#EDDDC2"/><path d="M173.58 71.18l22.322-5.619-5.62 22.322H173.58V71.18zm-91.16 0l-22.322-5.619 5.62 22.322H82.42V71.18z" fill="#1F0924"/><path d="M55.102 153.132h145.796l54.79-19.669-55.103-19.512 37.932-44.331-57.444 10.77 10.77-57.444-44.33 37.932L128 5.776l-19.512 55.102-44.332-37.932 10.77 57.444-57.443-10.77 37.932 44.331L.312 133.463" fill="#B157B5"/><g transform="translate(71.805 98.341)"><circle fill="#FFFAF3" cx="19.356" cy="19.824" r="18.888"/><circle fill="#1F0924" cx="19.356" cy="19.824" r="14.829"/><circle fill="#FFFAF3" cx="14.361" cy="14.829" r="6.556"/></g><g transform="translate(145.17 98.341)"><circle fill="#FFFAF3" cx="19.668" cy="19.824" r="18.888"/><circle fill="#1F0924" cx="19.668" cy="19.824" r="14.829"/><circle fill="#FFFAF3" cx="14.517" cy="14.829" r="6.556"/></g><path d="M93.502 147.668c0-19.044 15.454-34.497 34.498-34.497 19.044 0 34.498 15.453 34.498 34.497s-68.996 19.044-68.996 0zm-24.82 5.776c0-6.244 4.996-11.395 11.396-11.395s11.395 4.995 11.395 11.395c0 6.4-22.79 6.244-22.79 0zm95.845 0c0-6.244 4.995-11.395 11.395-11.395 6.244 0 11.395 4.995 11.395 11.395 0 6.4-22.79 6.244-22.79 0z" fill="#EDDDC2"/><path d="M126.358 137.88a5.93 5.93 0 01-5.85 4.95 5.93 5.93 0 01-5.932-5.932c0-.937-.625-1.561-1.561-1.561-.937 0-1.561.624-1.561 1.56 0 4.996 4.058 9.054 9.053 9.054 3.122 0 5.932-1.56 7.493-3.902 1.717 2.341 4.37 3.902 7.493 3.902 4.995 0 8.897-4.058 9.053-9.053 0-.937-.624-1.561-1.56-1.561-.937 0-1.562.624-1.562 1.56a5.93 5.93 0 01-5.931 5.932 5.93 5.93 0 01-5.851-4.95c5.939-.804 10.534-5.909 10.534-12.064 0-6.713-24.352-6.713-24.352 0 0 6.155 4.595 11.26 10.534 12.065z" fill="#1F0924"/></svg>
